X: 217
T: Bana Hem-dem Eyleyen
C: Nikoğos Ağa
O: Turkey
F: http://compmusic.upf.edu/node/140
N: hicazkar--sarki--agiraksak--bana_hem-dem--nikogos_aga
N: makam= hicazkar
N: form= sarki
N: usul= agiraksak = 9/4
M: 9/4
L: 1/16
K: C _1/4B _7/8e _7/8A ^f
Q: 1/4=69
%%MIDI tuningsystem comma53
f2g4_b2 =a3b g3a f3g e3f d3e c2de dcB=A  | \
w:  ARANAĞME  | 
G3A B2c2 defg fedc B3c BAAG G8 z4  | 
w:   | 
f2g4_b2 =a3b g3a f3g e3f d3e c2de dcB=A  | \
w:  ARANAĞME  | 
G3A B2c2 defg fedc B3c BAAG G8 z4  | 
w:   | 
edef g4 z2=f2 _1/4e2f2 g8 =a3g f2a2 g2f2  | \
w:  *  *  *  *  *  Ba *  na  hem- dem   | 
=f2_1/4e4d2 d4 {e}d2c2 g3f e2fg f4 g6z2  | 
w:  ey *  *  le *  *  *  yen  *  *  *  *  ey   | 
g4 a4 a2b2 a2g2 g2=f4_1/4e2 c'3b a2g2 f2g2  | \
w:  ey  *  *  *  *  *  *  *  *  gam  *  *  *  se  | 
=f4 g4 g2a2 g2f2 g3f _1/4efga f2g4f2 b2ag  | 
w:  ni  *  *  *  *  *  ca *  *  *  *  *  nım    | 
g8 z2=a2 g2a2 g2=f4_1/4e2 f3e d2e2 f2g2  | \
w:  *  Bir  *  gö nül  *  *  bir   | 
=f2_e2 d2c2 B2c2 d2e2 d2c2 B2A2 B3A G8  | 
w:  baht  *  *  *  *  *  *  *  bir  *  *  *  çer  | 
z2d2 c2d2 _e2=f2 d2c2 B2A2 G4 c8 B2A2  | \
w:  çer *  *  *  *  *  *  *  *  *  hi  de  | 
cBA12G2 GAB4AG G6c2 B2d2  | 
w:  nî  *  *  a man  *  *  a *  man   SAZ  | 
c8 z2c4d2 e3d c4 f4 g4 f2e2  | d2e2 d2c2 B2c2 d2e2 d2c2 B2A2 B3A G6z2  | 
w:  *  Bık tı ran  *  *  can  |  dan  *  *  *  bu  *  *  *  üç  *  *  *  şey   | 
=f4 g8 g2a2 g2f4_1/4e2 c'3b a2g2 f2g2  | \
w:  şey *  *  *  *  *  *  dir  *  *  *  be  | 
=f4 g4 g2a2 g2f2 g3f _1/4efga f2g4f2 b2ag  | 
w:  ni  *  *  *  *  *  ca *  *  *  *  *  nım    | 
g8 z2=a2 g2a2 g2=f4_1/4e2 f3e d2e2 f2g2  | \
w:  *  Bir  *  gö nül  *  *  bir   | 
=f2_e2 d2c2 B2c2 d2e2 d2c2 B2A2 B3A G8  | 
w:  baht  *  *  *  *  *  *  *  bir  *  *  *  çer   | 
z2d2 c2d2 _e2=f2 d2c2 B2A2 G4 c8 B2A2  | \
w:  çer *  *  *  *  *  *  *  *  *  hi  de  | 
cBA12G2 GAB4AG G8 z4  | 
w:  nî  *  *  a man  *  *  a *  man    | 
|


